; generated by AnkerMake Studio 1.5.25 on 2025-01-19 at 22:22:10 UTC

;MINX:77.713
;MINY:71.677
;MINZ:0.14
;MAXX:157.287
;MAXY:163.323
;MAXZ:2.94

; filament_type = "AnkerMake PLA+ Basic"
;Filament Name:AnkerMake PLA+ Basic
;Machine Name:AnkerMake M5
;Profile Name:Normal - M5 0.4mm - PLA+ Basic
;multi_model:false
;support_enable:false
;damaged:false
;repaired:false
;adhesion_type:auto_brim
;perimeter_flow_ratio:1
;Machine Nozzle Size:0.4
;Print Mode:Normal - M5 0.4mm - PLA+ Basic
;Filament weight: 18.1755g
;Filament used: 6093.96mm
;Layer height: 0.2
;material_print_temperature_layer_0: 230
;speed_infill: 250
;speed_wall_0: 150
;speed_wall_x: 250
;acceleration_print: 2500
;acceleration_travel: 0
;MAXSPEED:15000
;TIME:2515.53s

;
;
; PRINT_COMPATIBLE
;  P_NORMAL
;  F_PLA__Basic
; 

; external perimeters extrusion width = 0.44mm
; perimeters extrusion width = 0.40mm
; infill extrusion width = 0.40mm
; solid infill extrusion width = 0.40mm
; top infill extrusion width = 0.40mm
; first layer extrusion width = 0.44mm

M73 P0 R41
;TYPE:Custom
M104 S230 ; set final nozzle temp
M190 S65 ; set and wait for bed temp to stabilize
M109 S230 ; wait for nozzle temp to stabilize
G28 ;Home
;LAYER_COUNT:15
G21 ; set units to millimeters
G90 ; use absolute coordinates
M83 ; use relative distances for extrusion
; Filament gcode
M107
;LAYER_CHANGE
;Z:0.14
;HEIGHT:0.14
;BEFORE_LAYER_CHANGE
;0.14
;LAYER:1
G1 E-3 F3600
;AFTER_LAYER_CHANGE
G92 E0
M205 X10 Y10
G17
G3 Z.14 I-.289 J.313 P1  F9000
G1 X75.811 Y70.152
G1 E3 F3600
M204 P2500
;TYPE:Skirt/Brim
;WIDTH:0.44
G1 E0 F3000
G1 X76.517 Y69.478 E.02329
G1 X77.29 Y68.882 E.02329
G1 X78.585 Y68.134 E.03569
G1 X79.489 Y67.761 E.02333
G1 X80.434 Y67.482 E.02351
G1 X81.394 Y67.307 E.02328
G1 X82.367 Y67.233 E.02328
G1 X152.633 Y67.233 E1.67666
G1 X153.583 Y67.305 E.02273
G1 X154.566 Y67.482 E.02383
G1 X156 Y67.948 E.03598
G1 X156.879 Y68.371 E.02328
G1 X157.71 Y68.882 E.02328
G1 X158.812 Y69.775 E.03385
G1 X159.485 Y70.481 E.02327
G1 X160.081 Y71.253 E.02327
G1 X160.835 Y72.559 E.03598
G1 X161.206 Y73.462 E.02329
G1 X161.481 Y74.398 E.02328
G1 X161.703 Y75.798 E.03382
G1 X161.737 Y158.448 E1.97216
G1 X161.573 Y160.169 E.04125
G1 X161.206 Y161.538 E.03382
G1 X160.593 Y162.916 E.03599
G1 X159.821 Y164.105 E.03383
G1 X159.189 Y164.848 E.02328
G1 X158.068 Y165.857 E.03599
G1 X157.263 Y166.408 E.02328
G1 X156.404 Y166.871 E.02328
G1 X155.502 Y167.243 E.02328
G1 X154.566 Y167.518 E.02328
G1 X153.606 Y167.693 E.02328
G1 X152.411 Y167.773 E.02858
G1 X82.589 Y167.773 E1.66606
G1 X80.868 Y167.61 E.04125
G1 X79.498 Y167.243 E.03384
G1 X78.121 Y166.629 E.03598
G1 X76.932 Y165.857 E.03383
G1 X76.188 Y165.225 E.02329
G1 X75.515 Y164.519 E.02327
G1 X74.919 Y163.747 E.02327
G1 X74.171 Y162.452 E.03569
G1 X73.797 Y161.548 E.02334
G1 X73.519 Y160.602 E.02353
G1 X73.343 Y159.642 E.02329
G1 X73.263 Y158.448 E.02855
G1 X73.263 Y76.552 E1.95417
G1 X73.427 Y74.831 E.04125
G1 X73.794 Y73.462 E.03382
G1 X74.407 Y72.084 E.03599
G1 X75.179 Y70.895 E.03383
G1 X75.772 Y70.197 E.02185
G1 X76.104 Y70.51 F9000
G1 E0 F3000
G1 X76.775 Y69.797 E.02336
G1 X77.513 Y69.226 E.02227
G1 X78.771 Y68.499 E.03467
G1 X80.541 Y67.878 E.04476
G1 X82.389 Y67.642 E.04445
G1 X152.611 Y67.642 E1.67561
G1 X154.459 Y67.878 E.04445
G1 X155.853 Y68.331 E.03498
G1 X157.487 Y69.226 E.04446
G1 X158.522 Y70.065 E.03179
G1 X159.737 Y71.477 E.04445
G1 X160.47 Y72.745 E.03495
G1 X161.085 Y74.504 E.04446
G1 X161.293 Y75.82 E.03179
G1 X161.327 Y158.448 E1.97163
G1 X161.168 Y160.105 E.03972
G1 X160.823 Y161.391 E.03177
G1 X160.228 Y162.73 E.03496
G1 X159.502 Y163.847 E.03179
G1 X158.899 Y164.558 E.02225
G1 X157.81 Y165.539 E.03497
G1 X156.218 Y166.506 E.04445
G1 X154.459 Y167.122 E.04447
G1 X153.542 Y167.288 E.02224
G1 X152.411 Y167.363 E.02705
G1 X82.589 Y167.363 E1.66606
G1 X80.932 Y167.205 E.03972
G1 X79.645 Y166.86 E.03179
G1 X78.307 Y166.264 E.03495
G1 X77.19 Y165.539 E.03178
G1 X75.833 Y164.261 E.04448
G1 X75.263 Y163.523 E.02225
G1 X74.536 Y162.266 E.03465
G1 X73.915 Y160.496 E.04476
G1 X73.748 Y159.578 E.02226
G1 X73.673 Y158.448 E.02702
G1 X73.673 Y76.552 E1.95417
G1 X73.832 Y74.895 E.03972
G1 X74.177 Y73.609 E.03177
G1 X74.772 Y72.27 E.03496
G1 X75.498 Y71.153 E.03179
G1 X76.063 Y70.553 E.01967
G1 X76.36 Y70.833 F9000
G1 E0 F3000
G1 X77.033 Y70.116 E.02346
G1 X77.736 Y69.57 E.02124
G1 X78.957 Y68.865 E.03364
G1 X80.647 Y68.274 E.04272
G1 X82.41 Y68.052 E.0424
G1 X152.59 Y68.052 E1.67461
G1 X154.353 Y68.274 E.0424
G1 X155.706 Y68.714 E.03395
G1 X157.264 Y69.57 E.04242
G1 X158.232 Y70.354 E.02972
G1 X159.393 Y71.7 E.04241
G1 X160.104 Y72.932 E.03394
G1 X160.689 Y74.61 E.0424
G1 X160.884 Y75.841 E.02974
G1 X160.917 Y158.448 E1.97113
G1 X160.763 Y160.041 E.03819
G1 X160.441 Y161.244 E.02972
G1 X159.862 Y162.544 E.03396
G1 X159.184 Y163.589 E.02972
G1 X158.609 Y164.269 E.02125
G1 X157.552 Y165.22 E.03393
G1 X156.032 Y166.141 E.04241
G1 X154.353 Y166.726 E.04243
G1 X153.477 Y166.883 E.02124
G1 X152.411 Y166.953 E.02549
G1 X82.589 Y166.953 E1.66606
G1 X80.996 Y166.8 E.03819
G1 X79.792 Y166.477 E.02975
G1 X78.493 Y165.899 E.03393
G1 X77.448 Y165.22 E.02974
G1 X76.152 Y164.003 E.04242
G1 X75.607 Y163.3 E.02123
G1 X74.901 Y162.08 E.03363
G1 X74.311 Y160.39 E.04271
G1 X74.153 Y159.514 E.02124
G1 X74.083 Y158.448 E.02549
G1 X74.083 Y76.552 E1.95417
G1 X74.237 Y74.959 E.03819
G1 X74.559 Y73.756 E.02972
G1 X75.138 Y72.456 E.03396
G1 X75.816 Y71.411 E.02972
G1 X76.319 Y70.876 E.01752
G1 E-3 F3600
G1 X131.498 Y132.984 F9000
G1 E3 F3600
;TYPE:External perimeter
G1 E0 F3000
G1 X131.498 Y116.283 E.47821
G1 X135.476 Y116.283 E.11391
G1 X135.476 Y132.984 E.47821
G1 X131.558 Y132.984 E.11219
G1 X131.298 Y133.079 F9000
G1 E-3 F3600
G1 X153.049 Y133.194 F9000
G1 E3 F3600
G1 E0 F3000
G1 X153.049 Y116.241 E.48543
G1 X155.692 Y116.25 E.07568
G1 X156.157 Y116.295 E.01338
G1 X156.831 Y116.438 E.01973
G1 X156.831 Y132.997 E.47415
G1 X156.157 Y133.139 E.01972
G1 X155.692 Y133.185 E.01338
G1 X153.109 Y133.193 E.07396
G1 X152.849 Y133.195 F9000
G1 E-3 F3600
G1 X153.109 Y133.388 F9000
G1 X120.133 Y78.809
G1 X120.191 Y78.684
G1 X120.291 Y78.387
G1 X120.358 Y78.08
G1 X120.392 Y77.769
G1 X120.392 Y77.455
M73 P1 R41
G1 X120.358 Y77.143
G1 X120.291 Y76.837
G1 X120.191 Y76.54
G1 X120.059 Y76.255
G1 X119.897 Y75.986
G1 X119.707 Y75.737
G1 X119.492 Y75.509
G1 X119.253 Y75.306
G1 X118.993 Y75.13
G1 X118.716 Y74.983
G1 X118.425 Y74.867
G1 X118.123 Y74.783
G1 X117.812 Y74.732
G1 X117.788 Y74.731
G1 X117.778 Y74.926
G1 E3 F3600
G1 E0 F3000
G1 X117.792 Y74.926 E.0004
G1 X118.081 Y74.974 E.00839
G1 X118.362 Y75.052 E.00835
G1 X118.634 Y75.16 E.00838
G1 X118.893 Y75.297 E.00839
G1 X119.135 Y75.461 E.00837
G1 X119.357 Y75.651 E.00837
G1 X119.559 Y75.863 E.00838
G1 X119.736 Y76.096 E.00838
G1 X119.886 Y76.347 E.00837
G1 X120.009 Y76.612 E.00837
G1 X120.103 Y76.889 E.00838
G1 X120.165 Y77.175 E.00838
G1 X120.197 Y77.465 E.00835
G1 X120.197 Y77.758 E.00839
G1 X120.165 Y78.049 E.00838
G1 X120.103 Y78.334 E.00835
G1 X120.009 Y78.611 E.00838
G1 X119.886 Y78.877 E.00839
G1 X119.736 Y79.127 E.00835
G1 X119.559 Y79.36 E.00838
G1 X119.357 Y79.573 E.00841
G1 X119.135 Y79.762 E.00835
G1 X118.893 Y79.926 E.00837
G1 X118.634 Y80.063 E.00839
G1 X118.362 Y80.171 E.00838
G1 X118.081 Y80.25 E.00836
G1 X117.792 Y80.297 E.00838
G1 X117.5 Y80.313 E.00837
G1 X117.208 Y80.297 E.00837
G1 X116.926 Y80.251 E.00818
G1 X116.638 Y80.172 E.00855
G1 X116.366 Y80.063 E.00839
G1 X116.107 Y79.926 E.00839
G1 X115.865 Y79.762 E.00837
G1 X115.643 Y79.573 E.00835
G1 X115.441 Y79.36 E.00841
G1 X115.264 Y79.127 E.00838
G1 X115.114 Y78.877 E.00835
G1 X114.991 Y78.611 E.00839
G1 X114.897 Y78.334 E.00838
G1 X114.835 Y78.049 E.00835
G1 X114.803 Y77.758 E.00838
G1 X114.803 Y77.465 E.00839
G1 X114.834 Y77.181 E.00818
G1 X114.897 Y76.89 E.00853
G1 X114.991 Y76.612 E.0084
G1 X115.114 Y76.347 E.00837
G1 X115.264 Y76.096 E.00837
G1 X115.441 Y75.863 E.00838
G1 X115.643 Y75.651 E.00838
G1 X115.865 Y75.461 E.00837
G1 X116.107 Y75.297 E.00837
G1 X116.366 Y75.16 E.00839
G1 X116.638 Y75.052 E.00838
G1 X116.919 Y74.974 E.00835
G1 X117.208 Y74.927 E.00838
G1 X117.494 Y74.911 E.0082
G1 X117.718 Y74.923 E.00642
G1 X117.785 Y74.914 F9000
G1 E-3 F3600
G1 X117.728 Y74.728 F9000
G1 X117.493 Y74.716
G1 X117.187 Y74.732
G1 X116.877 Y74.783
G1 X116.575 Y74.867
G1 X116.284 Y74.983
G1 X116.007 Y75.13
G1 X115.747 Y75.306
G1 X115.508 Y75.509
G1 X115.293 Y75.737
G1 X115.103 Y75.986
G1 X114.941 Y76.255
G1 X114.809 Y76.54
G1 X114.709 Y76.838
G1 X103.502 Y120.125
G1 X103.502 Y133.264
G1 X99.237 Y133.264
G1 X99.237 Y133.069
G1 X99.432 Y133.069
G1 E3 F3600
G1 E0 F3000
G1 X99.432 Y116.204 E.48291
G1 X103.307 Y116.204 E.11096
G1 X103.307 Y133.069 E.48291
G1 X99.492 Y133.069 E.10924
G1 X99.232 Y133.165 F9000
G1 E-3 F3600
G1 X78.315 Y74.659 F9000
G1 E3 F3600
G1 E0 F3000
G1 X78.318 Y74.651 E.00024
G1 X78.54 Y74.215 E.01401
G1 X78.807 Y73.804 E.01403
G1 X79.115 Y73.424 E.01401
G1 X79.461 Y73.078 E.01401
G1 X79.841 Y72.77 E.01401
G1 X80.251 Y72.504 E.01399
G1 X80.677 Y72.287 E.01369
G1 X81.145 Y72.106 E.01437
G1 X81.617 Y71.98 E.01399
G1 X82.1 Y71.903 E.014
G1 X82.6 Y71.877 E.01434
G1 X152.4 Y71.877 E1.99865
G1 X152.888 Y71.902 E.01399
G1 X153.384 Y71.98 E.01438
G1 X153.856 Y72.106 E.01399
G1 X154.313 Y72.282 E.01402
G1 X154.749 Y72.504 E.01401
G1 X155.159 Y72.77 E.01399
G1 X155.539 Y73.078 E.01401
G1 X155.885 Y73.424 E.01401
G1 X156.193 Y73.804 E.01401
G1 X156.46 Y74.215 E.01403
G1 X156.682 Y74.651 E.01401
G1 X156.857 Y75.108 E.01401
G1 X156.984 Y75.58 E.014
G1 X157.06 Y76.063 E.014
G1 X157.087 Y76.563 E.01434
G1 X157.087 Y114.506 E1.08646
G1 X157.106 Y115.515 E.0289
G1 X157.157 Y116.03 E.01482
G1 X157.235 Y116.52 E.01421
G1 X157.241 Y117.002 E.0138
G1 X157.241 Y132.478 E.44314
G1 X157.23 Y132.96 E.01381
G1 X157.15 Y133.452 E.01427
G1 X157.103 Y133.967 E.01481
G1 X157.087 Y134.976 E.0289
G1 X157.087 Y158.437 E.67178
G1 X157.06 Y158.937 E.01434
G1 X156.984 Y159.42 E.014
G1 X156.857 Y159.892 E.014
G1 X156.682 Y160.349 E.01401
G1 X156.46 Y160.785 E.01401
G1 X156.193 Y161.196 E.01403
G1 X155.885 Y161.576 E.01401
G1 X155.539 Y161.922 E.01401
G1 X155.159 Y162.23 E.01401
G1 X154.749 Y162.496 E.01399
G1 X154.313 Y162.718 E.01401
G1 X153.856 Y162.894 E.01402
G1 X153.383 Y163.02 E.01402
G1 X152.9 Y163.097 E.014
G1 X152.4 Y163.123 E.01434
G1 X82.6 Y163.123 E1.99865
G1 X82.1 Y163.097 E.01434
G1 X81.617 Y163.02 E.014
G1 X81.144 Y162.894 E.01402
G1 X80.687 Y162.718 E.01402
G1 X80.251 Y162.496 E.01401
G1 X79.841 Y162.23 E.01399
G1 X79.461 Y161.922 E.01401
G1 X79.115 Y161.576 E.01401
G1 X78.807 Y161.196 E.01401
G1 X78.54 Y160.785 E.01403
G1 X78.323 Y160.36 E.01366
G1 X78.143 Y159.892 E.01436
G1 X78.016 Y159.42 E.014
G1 X77.94 Y158.937 E.014
G1 X77.913 Y158.437 E.01434
G1 X77.911 Y134.475 E.68613
G1 X77.894 Y133.963 E.01467
G1 X77.836 Y133.446 E.0149
G1 X77.74 Y132.954 E.01435
G1 X77.718 Y132.476 E.0137
G1 X77.718 Y117.004 E.44302
G1 X77.732 Y116.525 E.01372
G1 X77.826 Y116.036 E.01426
G1 X77.889 Y115.518 E.01494
G1 X77.913 Y114.506 E.02899
G1 X77.913 Y76.563 E1.08646
G1 X77.94 Y76.063 E.01434
G1 X78.016 Y75.58 E.014
G1 X78.143 Y75.108 E.014
G1 X78.293 Y74.715 E.01204
G1 X78.323 Y74.657 F9000
G1 E-3 F3600
G1 X78.476 Y74.785 F9000
G1 X82.054 Y116.109
G1 X82.054 Y133.314
G1 X81.859 Y133.314
G1 X81.859 Y133.12
G1 E3 F3600
G1 E0 F3000
G1 X79.221 Y133.108 E.07554
G1 X78.749 Y133.05 E.01362
G1 X78.128 Y132.868 E.01853
G1 X78.128 Y116.554 E.46713
G1 X78.749 Y116.373 E.01852
G1 X79.22 Y116.315 E.01359
G1 X80.115 Y116.304 E.02563
G1 X81.859 Y116.304 E.04994
G1 X81.859 Y133.06 E.47979
G1 X81.865 Y133.32 F9000
G1 E-3 F3600
G1 X82.054 Y133.06 F9000
G1 X99.237 Y116.009
G1 X103.502 Y116.009
G1 X103.502 Y116.023
G1 X156.345 Y74.419
G1 X156.373 Y74.405
G1 E3 F3600
;TYPE:Solid infill
;WIDTH:0.441107
G1 E0 F3000
G1 X155.301 Y73.334 E.04351
G1 X154.954 Y73.052 E.01284
G1 X154.574 Y72.806 E.013
G1 X154.171 Y72.6 E.01299
G1 X153.872 Y72.486 E.00919
G1 X156.478 Y75.092 E.10581
G1 X156.643 Y75.653 E.01679
G1 X156.677 Y75.872 E.00636
G1 X153.092 Y72.287 E.14556
G1 X152.852 Y72.249 E.00698
G1 X152.452 Y72.228 E.0115
G1 X156.735 Y76.511 E.17391
G1 X156.738 Y77.096 E.0168
G1 X151.868 Y72.225 E.19776
G1 X151.286 Y72.225 E.01671
G1 X156.738 Y77.677 E.22137
G1 X156.738 Y78.259 E.01671
G1 X150.705 Y72.225 E.24498
G1 X150.124 Y72.225 E.01668
G1 X156.738 Y78.84 E.26857
G1 X156.738 Y79.421 E.01668
G1 X149.542 Y72.225 E.29218
G1 X148.961 Y72.225 E.01668
G1 X156.738 Y80.003 E.3158
G1 X156.738 Y80.584 E.01668
G1 X148.38 Y72.225 E.33939
G1 X147.798 Y72.225 E.01671
G1 X156.738 Y81.165 E.363
G1 X156.738 Y81.747 E.01671
G1 X147.217 Y72.225 E.38661
G1 X146.636 Y72.225 E.01668
G1 X156.738 Y82.328 E.4102
G1 X156.738 Y82.909 E.01668
G1 X146.054 Y72.225 E.43381
G1 X145.473 Y72.225 E.01668
G1 X156.738 Y83.491 E.45742
G1 X156.738 Y84.072 E.01668
G1 X144.892 Y72.225 E.48101
G1 X144.31 Y72.225 E.01671
G1 X156.738 Y84.653 E.50462
G1 X156.738 Y85.235 E.01671
G1 X143.729 Y72.225 E.52824
G1 X143.148 Y72.225 E.01668
G1 X156.738 Y85.816 E.55183
G1 X156.738 Y86.397 E.01668
G1 X142.566 Y72.225 E.57544
G1 X141.985 Y72.225 E.01668
G1 X156.738 Y86.979 E.59905
G1 X156.738 Y87.56 E.01668
G1 X141.404 Y72.225 E.62264
G1 X140.822 Y72.225 E.01671
G1 X156.738 Y88.141 E.64625
G1 X156.738 Y88.723 E.01671
G1 X140.241 Y72.225 E.66986
G1 X139.66 Y72.225 E.01668
G1 X156.738 Y89.304 E.69345
G1 X156.738 Y89.885 E.01668
G1 X139.078 Y72.225 E.71706
G1 X138.497 Y72.225 E.01668
G1 X156.738 Y90.467 E.74067
G1 X156.738 Y91.048 E.01668
G1 X137.916 Y72.225 E.76427
G1 X137.334 Y72.225 E.01671
G1 X156.738 Y91.629 E.78788
G1 X156.738 Y92.211 E.01671
G1 X136.753 Y72.225 E.81149
G1 X136.172 Y72.225 E.01668
G1 X156.738 Y92.792 E.83508
G1 X156.738 Y93.373 E.01668
G1 X135.59 Y72.225 E.85869
G1 X135.009 Y72.225 E.01668
G1 X156.738 Y93.955 E.8823
G1 X156.738 Y94.536 E.01668
G1 X134.428 Y72.225 E.90589
G1 X133.846 Y72.225 E.01671
G1 X156.738 Y95.117 E.9295
G1 X156.738 Y95.699 E.01671
G1 X133.265 Y72.225 E.95311
G1 X132.684 Y72.225 E.01668
G1 X156.738 Y96.28 E.9767
G1 X156.738 Y96.861 E.01668
G1 X132.102 Y72.225 E1.00032
G1 X131.521 Y72.225 E.01668
M73 P2 R41
G1 X156.738 Y97.443 E1.02393
G1 X156.738 Y98.024 E.01668
G1 X130.94 Y72.225 E1.04752
G1 X130.358 Y72.225 E.01671
G1 X156.738 Y98.605 E1.07113
G1 X156.738 Y99.187 E.01671
G1 X129.777 Y72.225 E1.09474
G1 X129.196 Y72.225 E.01668
G1 X156.738 Y99.768 E1.11833
G1 X156.738 Y100.349 E.01668
G1 X128.614 Y72.225 E1.14194
G1 X128.033 Y72.225 E.01668
G1 X156.738 Y100.931 E1.16555
G1 X156.738 Y101.512 E.01668
G1 X127.452 Y72.225 E1.18914
G1 X126.87 Y72.225 E.01671
M73 P2 R40
G1 X156.738 Y102.093 E1.21275
G1 X156.738 Y102.675 E.01671
G1 X126.289 Y72.225 E1.23637
G1 X125.708 Y72.225 E.01668
G1 X156.738 Y103.256 E1.25996
G1 X156.738 Y103.837 E.01668
G1 X125.126 Y72.225 E1.28357
G1 X124.545 Y72.225 E.01668
G1 X156.738 Y104.419 E1.30718
G1 X156.738 Y105 E.01668
G1 X123.964 Y72.225 E1.33077
G1 X123.382 Y72.225 E.01671
G1 X156.738 Y105.581 E1.35438
G1 X156.738 Y106.163 E.01671
G1 X122.801 Y72.225 E1.37799
G1 X122.22 Y72.225 E.01668
G1 X156.738 Y106.744 E1.40158
G1 X156.738 Y107.325 E.01668
G1 X121.638 Y72.225 E1.42519
G1 X121.057 Y72.225 E.01668
G1 X156.738 Y107.907 E1.4488
G1 X156.738 Y108.488 E.01668
G1 X120.476 Y72.225 E1.4724
G1 X119.894 Y72.225 E.01671
G1 X156.738 Y109.069 E1.49601
G1 X156.738 Y109.651 E.01671
G1 X119.313 Y72.225 E1.51962
G1 X118.732 Y72.225 E.01668
G1 X156.738 Y110.232 E1.54321
G1 X156.738 Y110.813 E.01668
G1 X118.15 Y72.225 E1.56682
G1 X117.569 Y72.225 E.01668
G1 X156.738 Y111.395 E1.59043
G1 X156.738 Y111.976 E.01668
G1 X116.988 Y72.225 E1.61402
G1 X116.406 Y72.225 E.01671
G1 X156.738 Y112.557 E1.63763
G1 X156.738 Y113.139 E.01671
G1 X120.451 Y76.851 E1.47341
G1 X120.51 Y77.118 E.00785
G1 X120.546 Y77.527 E.01179
G1 X156.738 Y113.72 E1.46955
M73 P3 R40
G1 X156.738 Y114.301 E.01668
G1 X120.513 Y78.076 E1.47087
G1 X120.4 Y78.544 E.01382
G1 X156.746 Y114.89 E1.47579
G1 X156.757 Y115.483 E.01703
G1 X120.233 Y78.958 E1.48303
G1 X120.021 Y79.328 E.01224
G1 X156.76 Y116.067 E1.49174
G1 X156.21 Y115.95 E.01614
