; generated by AnkerMake Studio 1.5.25 on 2025-01-19 at 02:17:32 UTC

;MINX:78.424
;MINY:74.044
;MINZ:0.14
;MAXX:156.576
;MAXY:160.891
;MAXZ:19.89

; filament_type = "AnkerMake PLA+ Basic"
;Filament Name:AnkerMake PLA+ Basic
;Machine Name:AnkerMake M5
;Profile Name:Fast - M5 0.4mm - PLA+ Basic
;multi_model:false
;support_enable:false
;damaged:false
;repaired:false
;adhesion_type:auto_brim
;perimeter_flow_ratio:1
;Machine Nozzle Size:0.4
;Print Mode:Fast - M5 0.4mm - PLA+ Basic
;Filament weight: 19.0911g
;Filament used: 6400.93mm
;Layer height: 0.25
;material_print_temperature_layer_0: 230
;speed_infill: 250
;speed_wall_0: 150
;speed_wall_x: 250
;acceleration_print: 4000
;acceleration_travel: 4000
;MAXSPEED:30000
;TIME:2155.37s

;
;
; PRINT_COMPATIBLE
;  P_FAST
;  F_PLA__Basic
; 

; external perimeters extrusion width = 0.44mm
; perimeters extrusion width = 0.40mm
; infill extrusion width = 0.40mm
; solid infill extrusion width = 0.40mm
; top infill extrusion width = 0.40mm
; first layer extrusion width = 0.44mm

M73 P0 R35
;TYPE:Custom
M104 S230 ; set final nozzle temp
M190 S65 ; set and wait for bed temp to stabilize
M109 S230 ; wait for nozzle temp to stabilize
G28 ;Home
M4899 T3
M900 T0 K0.07
M205 R0.01

;LAYER_COUNT:80
G21 ; set units to millimeters
G90 ; use absolute coordinates
M83 ; use relative distances for extrusion
; Filament gcode
M107
;LAYER_CHANGE
;Z:0.14
;HEIGHT:0.14
;BEFORE_LAYER_CHANGE
;0.14
;LAYER:1
G1 E-3 F3600
;AFTER_LAYER_CHANGE
G92 E0
M205 X10 Y10
M205 E3
M204 T4000
G17
G3 Z.14 I-.293 J.31 P1  F9000
G1 X78.823 Y74.514
G1 E3 F3600
M204 P2500
;TYPE:Skirt/Brim
;WIDTH:0.44
G1 E0 F3000
G1 X80.721 Y73.178 E.05538
G1 X83.299 Y72.619 E.06294
G1 X151.701 Y72.619 E1.63218
G1 X153.889 Y73.016 E.05306
G1 X156.177 Y74.514 E.06526
G1 X157.443 Y76.342 E.05306
G1 X158.001 Y78.919 E.06292
G1 X158.001 Y156.081 E1.84121
G1 X157.605 Y158.268 E.05303
G1 X156.177 Y160.486 E.06295
G1 X154.279 Y161.823 E.0554
G1 X151.701 Y162.381 E.06294
G1 X83.299 Y162.381 E1.63218
G1 X81.111 Y161.984 E.05306
G1 X78.894 Y160.556 E.06293
G1 X77.557 Y158.658 E.0554
G1 X76.999 Y156.081 E.06292
G1 X76.999 Y78.919 E1.84121
G1 X77.395 Y76.732 E.05303
G1 X78.791 Y74.565 E.06151
M204 P4000
G1 X79.113 Y74.804 F9000
M204 P2500
G1 E0 F3000
G1 X80.957 Y73.521 E.0536
G1 X83.299 Y73.029 E.0571
G1 X151.701 Y73.029 E1.63218
G1 X153.813 Y73.426 E.05128
G1 X155.887 Y74.804 E.05942
G1 X157.099 Y76.578 E.05127
G1 X157.591 Y78.919 E.05708
G1 X157.591 Y156.081 E1.84121
G1 X157.195 Y158.192 E.05125
G1 X155.887 Y160.196 E.0571
G1 X154.043 Y161.479 E.0536
G1 X151.701 Y161.971 E.0571
G1 X83.299 Y161.971 E1.63218
G1 X81.187 Y161.574 E.05128
G1 X79.184 Y160.266 E.05708
G1 X77.901 Y158.423 E.05358
G1 X77.409 Y156.081 E.0571
G1 X77.409 Y78.919 E1.84121
G1 X77.805 Y76.808 E.05125
G1 X79.08 Y74.854 E.05567
M204 P4000
G1 X79.403 Y75.094 F9000
M204 P2500
G1 E0 F3000
G1 X81.191 Y73.867 E.05174
G1 X83.299 Y73.439 E.05133
G1 X151.701 Y73.439 E1.63218
G1 X153.734 Y73.835 E.04942
G1 X155.597 Y75.094 E.05365
G1 X156.754 Y76.811 E.0494
G1 X157.181 Y78.919 E.05132
G1 X157.181 Y156.081 E1.84121
G1 X156.785 Y158.113 E.0494
G1 X155.597 Y159.906 E.05132
G1 X153.809 Y161.133 E.05174
G1 X151.701 Y161.561 E.05133
G1 X83.299 Y161.561 E1.63218
G1 X81.266 Y161.165 E.04942
G1 X79.473 Y159.976 E.05134
G1 X78.246 Y158.189 E.05172
G1 X77.819 Y156.081 E.05132
G1 X77.819 Y78.919 E1.84121
G1 X78.215 Y76.887 E.0494
G1 X79.37 Y75.144 E.04989
M204 P4000
G1 E-3 F3600
G1 X151.351 Y155.731 F9000
G1 E3 F3600
M204 P2500
;TYPE:External perimeter
G1 E0 F3000
G1 X83.649 Y155.731 E1.93857
G1 X83.649 Y79.269 E2.1894
G1 X151.351 Y79.269 E1.93857
G1 X151.351 Y155.671 E2.18769
M204 P4000
G1 X150.775 Y155.564 F9000
G1 E-3 F3600
G1 X151.187 Y80.264 F9000
G1 E3 F3600
M204 P2500
;TYPE:Solid infill
;WIDTH:0.441112
G1 E0 F3000
G1 X150.541 Y79.618 E.02623
G1 X149.96 Y79.618 E.01668
M73 P1 R35
G1 X151.003 Y80.661 E.04235
G1 X151.003 Y81.242 E.01668
G1 X149.378 Y79.618 E.06596
G1 X148.797 Y79.618 E.01668
G1 X151.003 Y81.824 E.08957
G1 X151.003 Y82.405 E.01668
G1 X148.216 Y79.618 E.11316
G1 X147.634 Y79.618 E.01671
G1 X151.003 Y82.986 E.13678
G1 X151.003 Y83.568 E.01671
G1 X147.053 Y79.618 E.16039
G1 X146.471 Y79.618 E.01671
G1 X151.003 Y84.149 E.184
G1 X151.003 Y84.73 E.01668
G1 X145.89 Y79.618 E.20759
G1 X145.309 Y79.618 E.01668
G1 X151.003 Y85.312 E.2312
G1 X151.003 Y85.893 E.01668
G1 X144.727 Y79.618 E.25481
G1 X144.146 Y79.618 E.01668
G1 X151.003 Y86.474 E.2784
G1 X151.003 Y87.056 E.01671
G1 X143.565 Y79.618 E.30201
G1 X142.983 Y79.618 E.01671
G1 X151.003 Y87.637 E.32563
G1 X151.003 Y88.218 E.01668
G1 X142.402 Y79.618 E.34922
G1 X141.821 Y79.618 E.01668
G1 X151.003 Y88.8 E.37283
G1 X151.003 Y89.381 E.01668
G1 X141.239 Y79.618 E.39644
G1 X140.658 Y79.618 E.01668
G1 X151.003 Y89.962 E.42003
G1 X151.003 Y90.544 E.01671
G1 X140.077 Y79.618 E.44364
G1 X139.495 Y79.618 E.01671
G1 X151.003 Y91.125 E.46725
G1 X151.003 Y91.706 E.01668
G1 X138.914 Y79.618 E.49085
G1 X138.333 Y79.618 E.01668
G1 X151.003 Y92.288 E.51446
G1 X151.003 Y92.869 E.01668
G1 X137.751 Y79.618 E.53807
G1 X137.17 Y79.618 E.01668
G1 X151.003 Y93.45 E.56166
G1 X151.003 Y94.032 E.01671
G1 X136.589 Y79.618 E.58527
G1 X136.007 Y79.618 E.01671
G1 X151.003 Y94.613 E.60888
G1 X151.003 Y95.195 E.01671
G1 X135.426 Y79.618 E.63249
G1 X134.845 Y79.618 E.01668
G1 X151.003 Y95.776 E.65608
G1 X151.003 Y96.357 E.01668
G1 X134.263 Y79.618 E.6797
G1 X133.682 Y79.618 E.01668
G1 X151.003 Y96.939 E.70331
G1 X151.003 Y97.52 E.01668
G1 X133.101 Y79.618 E.7269
G1 X132.519 Y79.618 E.01671
G1 X151.003 Y98.101 E.75051
G1 X151.003 Y98.683 E.01671
G1 X131.938 Y79.618 E.77412
G1 X131.357 Y79.618 E.01668
G1 X151.003 Y99.264 E.79771
G1 X151.003 Y99.845 E.01668
G1 X130.775 Y79.618 E.82132
G1 X130.194 Y79.618 E.01668
G1 X151.003 Y100.427 E.84493
G1 X151.003 Y101.008 E.01668
G1 X129.613 Y79.618 E.86853
G1 X129.031 Y79.618 E.01671
G1 X151.003 Y101.589 E.89214
G1 X151.003 Y102.171 E.01671
G1 X128.45 Y79.618 E.91575
G1 X127.869 Y79.618 E.01668
G1 X151.003 Y102.752 E.93934
G1 X151.003 Y103.333 E.01668
G1 X127.287 Y79.618 E.96295
G1 X126.706 Y79.618 E.01668
G1 X151.003 Y103.915 E.98656
G1 X151.003 Y104.496 E.01668
G1 X126.125 Y79.618 E1.01015
G1 X125.543 Y79.618 E.01671
G1 X151.003 Y105.077 E1.03377
G1 X151.003 Y105.659 E.01671
G1 X124.962 Y79.618 E1.05738
G1 X124.381 Y79.618 E.01668
G1 X151.003 Y106.24 E1.08097
G1 X151.003 Y106.821 E.01668
G1 X123.799 Y79.618 E1.10458
G1 X123.218 Y79.618 E.01668
M73 P2 R35
G1 X151.003 Y107.403 E1.12819
G1 X151.003 Y107.984 E.01668
G1 X122.637 Y79.618 E1.15178
G1 X122.055 Y79.618 E.01671
G1 X151.003 Y108.565 E1.17539
G1 X151.003 Y109.147 E.01671
G1 X121.474 Y79.618 E1.199
G1 X120.893 Y79.618 E.01668
G1 X151.003 Y109.728 E1.2226
G1 X151.003 Y110.309 E.01668
G1 X120.311 Y79.618 E1.24621
G1 X119.73 Y79.618 E.01668
G1 X151.003 Y110.891 E1.26982
G1 X151.003 Y111.472 E.01668
G1 X119.149 Y79.618 E1.29341
G1 X118.567 Y79.618 E.01671
G1 X151.003 Y112.053 E1.31702
G1 X151.003 Y112.635 E.01671
G1 X117.986 Y79.618 E1.34063
G1 X117.405 Y79.618 E.01668
G1 X151.003 Y113.216 E1.36422
G1 X151.003 Y113.797 E.01668
G1 X116.823 Y79.618 E1.38783
G1 X116.242 Y79.618 E.01668
G1 X151.003 Y114.379 E1.41145
G1 X151.003 Y114.96 E.01668
G1 X115.661 Y79.618 E1.43504
G1 X115.079 Y79.618 E.01671
G1 X151.003 Y115.541 E1.45865
G1 X151.003 Y116.123 E.01671
M73 P2 R34
G1 X114.498 Y79.618 E1.48226
G1 X113.917 Y79.618 E.01668
G1 X151.003 Y116.704 E1.50585
G1 X151.003 Y117.285 E.01668
G1 X113.335 Y79.618 E1.52946
G1 X112.754 Y79.618 E.01668
G1 X151.003 Y117.867 E1.55307
G1 X151.003 Y118.448 E.01668
G1 X112.173 Y79.618 E1.57666
G1 X111.591 Y79.618 E.01671
G1 X151.003 Y119.029 E1.60028
G1 X151.003 Y119.611 E.01671
G1 X111.01 Y79.618 E1.62389
G1 X110.429 Y79.618 E.01668
G1 X151.003 Y120.192 E1.64748
G1 X151.003 Y120.773 E.01668
G1 X109.847 Y79.618 E1.67109
G1 X109.266 Y79.618 E.01668
M73 P3 R34
G1 X151.003 Y121.355 E1.6947
G1 X151.003 Y121.936 E.01668
G1 X108.685 Y79.618 E1.71829
G1 X108.103 Y79.618 E.01671
G1 X151.003 Y122.517 E1.7419
G1 X151.003 Y123.099 E.01671
G1 X107.522 Y79.618 E1.76552
G1 X106.941 Y79.618 E.01668
G1 X151.003 Y123.68 E1.78911
G1 X151.003 Y124.261 E.01668
G1 X106.359 Y79.618 E1.81272
G1 X105.778 Y79.618 E.01668
G1 X151.003 Y124.843 E1.83633
G1 X151.003 Y125.424 E.01668
G1 X105.197 Y79.618 E1.85992
G1 X104.615 Y79.618 E.01671
G1 X151.003 Y126.005 E1.88353
G1 X151.003 Y126.587 E.01671
G1 X104.034 Y79.618 E1.90714
G1 X103.452 Y79.618 E.01671
G1 X151.003 Y127.168 E1.93075
G1 X151.003 Y127.749 E.01668
G1 X102.871 Y79.618 E1.95435
G1 X102.29 Y79.618 E.01668
G1 X151.003 Y128.331 E1.97796
G1 X151.003 Y128.912 E.01668
G1 X101.708 Y79.618 E2.00157
G1 X101.127 Y79.618 E.01668
G1 X151.003 Y129.493 E2.02516
G1 X151.003 Y130.075 E.01671
G1 X100.546 Y79.618 E2.04877
G1 X99.964 Y79.618 E.01671
G1 X151.003 Y130.656 E2.07238
G1 X151.003 Y131.237 E.01668
M73 P4 R34
G1 X99.383 Y79.618 E2.09597
G1 X98.802 Y79.618 E.01668
G1 X151.003 Y131.819 E2.11958
G1 X151.003 Y132.4 E.01668
G1 X98.22 Y79.618 E2.1432
G1 X97.639 Y79.618 E.01668
G1 X151.003 Y132.981 E2.16679
G1 X151.003 Y133.563 E.01671
G1 X97.058 Y79.618 E2.1904
G1 X96.476 Y79.618 E.01671
G1 X151.003 Y134.144 E2.21401
G1 X151.003 Y134.725 E.01668
G1 X95.895 Y79.618 E2.2376
G1 X95.314 Y79.618 E.01668
G1 X151.003 Y135.307 E2.26121
G1 X151.003 Y135.888 E.01668
G1 X94.732 Y79.618 E2.28482
G1 X94.151 Y79.618 E.01668
G1 X151.003 Y136.469 E2.30842
G1 X151.003 Y137.051 E.01671
G1 X93.57 Y79.618 E2.33203
G1 X92.988 Y79.618 E.01671
G1 X151.003 Y137.632 E2.35564
G1 X151.003 Y138.214 E.01671
G1 X92.407 Y79.618 E2.37925
G1 X91.826 Y79.618 E.01668
G1 X151.003 Y138.795 E2.40284
G1 X151.003 Y139.376 E.01668
G1 X91.244 Y79.618 E2.42645
G1 X90.663 Y79.618 E.01668
M73 P5 R34
G1 X151.003 Y139.958 E2.45006
G1 X151.003 Y140.539 E.01668
G1 X90.082 Y79.618 E2.47365
G1 X89.5 Y79.618 E.01671
G1 X151.003 Y141.12 E2.49727
G1 X151.003 Y141.702 E.01671
G1 X88.919 Y79.618 E2.52088
G1 X88.338 Y79.618 E.01668
M73 P5 R33
G1 X151.003 Y142.283 E2.54447
G1 X151.003 Y142.864 E.01668
G1 X87.756 Y79.618 E2.56808
G1 X87.175 Y79.618 E.01668
G1 X151.003 Y143.446 E2.59169
G1 X151.003 Y144.027 E.01668
G1 X86.594 Y79.618 E2.61528
G1 X86.012 Y79.618 E.01671
G1 X151.003 Y144.608 E2.63889
G1 X151.003 Y145.19 E.01671
G1 X85.431 Y79.618 E2.6625
G1 X84.85 Y79.618 E.01668
G1 X151.003 Y145.771 E2.6861
G1 X151.003 Y146.352 E.01668
G1 X84.268 Y79.618 E2.70971
G1 X83.997 Y79.618 E.00778
M73 P6 R33
G1 X83.997 Y79.928 E.0089
G1 X151.003 Y146.934 E2.72073
G1 X151.003 Y147.515 E.01668
G1 X83.997 Y80.509 E2.72073
G1 X83.997 Y81.09 E.01668
G1 X151.003 Y148.096 E2.72073
G1 X151.003 Y148.678 E.01671
G1 X83.997 Y81.672 E2.72073
G1 X83.997 Y82.253 E.01668
G1 X151.003 Y149.259 E2.72073
G1 X151.003 Y149.84 E.01668
G1 X83.997 Y82.834 E2.72073
G1 X83.997 Y83.416 E.01671
G1 X151.003 Y150.422 E2.72073
G1 X151.003 Y151.003 E.01668
G1 X83.997 Y83.997 E2.72073
G1 X83.997 Y84.578 E.01668
G1 X151.003 Y151.584 E2.72073
G1 X151.003 Y152.166 E.01671
G1 X83.997 Y85.16 E2.72073
G1 X83.997 Y85.741 E.01668
G1 X151.003 Y152.747 E2.72073
G1 X151.003 Y153.328 E.01668
M73 P7 R33
G1 X83.997 Y86.322 E2.72073
G1 X83.997 Y86.904 E.01671
G1 X151.003 Y153.91 E2.72073
G1 X151.003 Y154.491 E.01668
G1 X83.997 Y87.485 E2.72073
G1 X83.997 Y88.066 E.01668
G1 X151.003 Y155.072 E2.72073
G1 X151.003 Y155.382 E.0089
G1 X150.732 Y155.382 E.00778
G1 X83.997 Y88.648 E2.70971
G1 X83.997 Y89.229 E.01668
G1 X150.15 Y155.382 E2.6861
G1 X149.569 Y155.382 E.01668
G1 X83.997 Y89.81 E2.6625
G1 X83.997 Y90.392 E.01671
G1 X148.988 Y155.382 E2.63889
G1 X148.406 Y155.382 E.01671
G1 X83.997 Y90.973 E2.61528
G1 X83.997 Y91.554 E.01668
G1 X147.825 Y155.382 E2.59169
G1 X147.244 Y155.382 E.01668
G1 X83.997 Y92.136 E2.56808
G1 X83.997 Y92.717 E.01668
G1 X146.662 Y155.382 E2.54447
G1 X146.081 Y155.382 E.01668
M73 P8 R33
G1 X83.997 Y93.298 E2.52088
G1 X83.997 Y93.88 E.01671
M73 P8 R32
G1 X145.5 Y155.382 E2.49727
G1 X144.918 Y155.382 E.01671
G1 X83.997 Y94.461 E2.47365
G1 X83.997 Y95.042 E.01668
G1 X144.337 Y155.382 E2.45006
G1 X143.756 Y155.382 E.01668
G1 X83.997 Y95.624 E2.42645
G1 X83.997 Y96.205 E.01668
G1 X143.174 Y155.382 E2.40284
G1 X142.593 Y155.382 E.01668
G1 X83.997 Y96.786 E2.37925
G1 X83.997 Y97.368 E.01671
G1 X142.012 Y155.382 E2.35564
G1 X141.43 Y155.382 E.01671
G1 X83.997 Y97.949 E2.33203
G1 X83.997 Y98.53 E.01668
G1 X140.849 Y155.382 E2.30844
G1 X140.268 Y155.382 E.01668
G1 X83.997 Y99.112 E2.28482
G1 X83.997 Y99.693 E.01668
G1 X139.686 Y155.382 E2.26121
M73 P9 R32
G1 X139.105 Y155.382 E.01668
G1 X83.997 Y100.274 E2.23762
G1 X83.997 Y100.856 E.01671
G1 X138.524 Y155.382 E2.21401
G1 X137.942 Y155.382 E.01671
G1 X83.997 Y101.437 E2.1904
G1 X83.997 Y102.018 E.01668
G1 X137.361 Y155.382 E2.16681
G1 X136.78 Y155.382 E.01668
G1 X83.997 Y102.6 E2.1432
G1 X83.997 Y103.181 E.01668
G1 X136.198 Y155.382 E2.11958
G1 X135.617 Y155.382 E.01668
G1 X83.997 Y103.762 E2.09599
G1 X83.997 Y104.344 E.01671
G1 X135.036 Y155.382 E2.07238
G1 X134.454 Y155.382 E.01671
G1 X83.997 Y104.925 E2.04877
G1 X83.997 Y105.506 E.01668
G1 X133.873 Y155.382 E2.02518
G1 X133.292 Y155.382 E.01668
G1 X83.997 Y106.088 E2.00157
G1 X83.997 Y106.669 E.01668
G1 X132.71 Y155.382 E1.97796
G1 X132.129 Y155.382 E.01668
G1 X83.997 Y107.25 E1.95437
G1 X83.997 Y107.832 E.01671
M73 P10 R32
G1 X131.548 Y155.382 E1.93075
G1 X130.966 Y155.382 E.01671
G1 X83.997 Y108.413 E1.90714
G1 X83.997 Y108.995 E.01671
G1 X130.385 Y155.382 E1.88353
G1 X129.804 Y155.382 E.01668
G1 X83.997 Y109.576 E1.85994
G1 X83.997 Y110.157 E.01668
G1 X129.222 Y155.382 E1.83633
G1 X128.641 Y155.382 E.01668
G1 X83.997 Y110.739 E1.81272
G1 X83.997 Y111.32 E.01668
G1 X128.06 Y155.382 E1.78913
G1 X127.478 Y155.382 E.01671
G1 X83.997 Y111.901 E1.76552
G1 X83.997 Y112.483 E.01671
G1 X126.897 Y155.382 E1.7419
G1 X126.316 Y155.382 E.01668
G1 X83.997 Y113.064 E1.71831
G1 X83.997 Y113.645 E.01668
G1 X125.734 Y155.382 E1.6947
G1 X125.153 Y155.382 E.01668
G1 X83.997 Y114.227 E1.67109
G1 X83.997 Y114.808 E.01668
G1 X124.572 Y155.382 E1.6475
G1 X123.99 Y155.382 E.01671
G1 X83.997 Y115.389 E1.62389
G1 X83.997 Y115.971 E.01671
G1 X123.409 Y155.382 E1.60028
G1 X122.828 Y155.382 E.01668
M73 P10 R31
G1 X83.997 Y116.552 E1.57669
G1 X83.997 Y117.133 E.01668
M73 P11 R31
G1 X122.246 Y155.382 E1.55307
G1 X121.665 Y155.382 E.01668
G1 X83.997 Y117.715 E1.52946
G1 X83.997 Y118.296 E.01668
G1 X121.084 Y155.382 E1.50587
G1 X120.502 Y155.382 E.01671
G1 X83.997 Y118.877 E1.48226
G1 X83.997 Y119.459 E.01671
G1 X119.921 Y155.382 E1.45865
G1 X119.339 Y155.382 E.01671
G1 X83.997 Y120.04 E1.43504
G1 X83.997 Y120.621 E.01668
G1 X118.758 Y155.382 E1.41145
G1 X118.177 Y155.382 E.01668
G1 X83.997 Y121.203 E1.38783
G1 X83.997 Y121.784 E.01668
G1 X117.595 Y155.382 E1.36422
G1 X117.014 Y155.382 E.01668
G1 X83.997 Y122.365 E1.34063
G1 X83.997 Y122.947 E.01671
G1 X116.433 Y155.382 E1.31702
G1 X115.851 Y155.382 E.01671
G1 X83.997 Y123.528 E1.29341
G1 X83.997 Y124.109 E.01668
G1 X115.27 Y155.382 E1.26982
G1 X114.689 Y155.382 E.01668
G1 X83.997 Y124.691 E1.24621
G1 X83.997 Y125.272 E.01668
G1 X114.107 Y155.382 E1.2226
G1 X113.526 Y155.382 E.01668
G1 X83.997 Y125.853 E1.199
G1 X83.997 Y126.435 E.01671
G1 X112.945 Y155.382 E1.17539
G1 X112.363 Y155.382 E.01671
G1 X83.997 Y127.016 E1.15178
G1 X83.997 Y127.597 E.01668
G1 X111.782 Y155.382 E1.12819
G1 X111.201 Y155.382 E.01668
G1 X83.997 Y128.179 E1.10458
G1 X83.997 Y128.76 E.01668
M73 P12 R31
G1 X110.619 Y155.382 E1.08097
G1 X110.038 Y155.382 E.01668
G1 X83.997 Y129.341 E1.05738
G1 X83.997 Y129.923 E.01671
G1 X109.457 Y155.382 E1.03377
G1 X108.875 Y155.382 E.01671
G1 X83.997 Y130.504 E1.01015
G1 X83.997 Y131.085 E.01668
G1 X108.294 Y155.382 E.98656
G1 X107.713 Y155.382 E.01668
G1 X83.997 Y131.667 E.96295
G1 X83.997 Y132.248 E.01668
G1 X107.131 Y155.382 E.93934
G1 X106.55 Y155.382 E.01668
G1 X83.997 Y132.829 E.91575
G1 X83.997 Y133.411 E.01671
G1 X105.969 Y155.382 E.89214
G1 X105.387 Y155.382 E.01671
G1 X83.997 Y133.992 E.86853
G1 X83.997 Y134.573 E.01668
G1 X104.806 Y155.382 E.84493
G1 X104.225 Y155.382 E.01668
